X: 610
T: Shier biao
%%abc-version 2.0
%%abcx-abcm2ps-target-version 5.9.1 (29 Sep 2008)
%%abc-creator hum2abc beta
%%abcx-conversion-date 2013/10/02 07:52:30
%%abc-edited-by Helmut Schaffrath
%%humdrum-veritas 684032016
%%humdrum-veritas-data 1985404643
%%continueall 1
%%barnumbers 0
L: 1/8
M: 2/4
K: A
e f c B [I:setbarnb 1]| 
e f c B | 
e c e f | 
B2B2 | 
B c e e | 
e cB2 | 
G3F | 
E2E2 | 
E3C | 
E2E2 | 
e c B c | 
C2E2 | 
B cB2 | 
G FE2 | 
B cB2 | 
G FE2 | 
G B F G | 
B4 | 
B ce2 | 
e cB2 | 
B e G F | 
EG2F | 
E4 |]  



